X:885
T:Reel 885
M:4/4
K:Gmaj
L:1/8
B|G2 (3def g2 (3def |g2bg afdf|g2df e2cB|ABcA BGGA|G2 (3BAG g2df|gbag fdde|fefd ecdB|ABcA BGG|c'|bggf g2d'g|bgd'b bggb|afc'f afaf|agac' c'bab|gbag bgd'g|bgd'g bggb|c'bc'a bgaf|fdec BGG|
